!!!OTL: "Kuhreigen" ES CHUNNT E MAITELI HURTIG HER
!!!ARE: Europa, Mitteleuropa, Oberhaslithal
!!!SCT: Z1311
!!!YEM: Copyright 1995, estate of Helmut Schaffrath.
**kern
*ICvox
*Ivox
*M6/8
*k[f#]
*G:
{16g
16a
=1
4b
16b
16g
4cc
16cc
16a
=2
8.dd
16cc
16b
16cc
4a
8r}
=3
{8a
8d
8d
8b
8g
8g
=4
4dd
8cc
4a}
{32g
32a
32b
32cc
=5
8dd
8dd
8b
8dd
16cc
16b
16cc
16a
=6
8.dd
16cc
16b
16a
4g
8r}
=7
{8a
8a
8d
8b
8b
8g
=8
4a
8d
4d}
{32g
32a
32b
32cc
=9
8dd
16dd
16gg
8b
8dd
16cc
16b
16a
16ff#
=10
16dd
16b
16cc
16a
4g
8r}
==
!!!AGN: Handwerker -, Bauern - Lied
!!!ONB: ESAC (Essen Associative Code) Database: ZUCCAL
!!!AMT: compound duple
!!!AIN: vox
!!!EED: Helmut Schaffrath
!!!EEV: 1.0
*-
